X: 152
T: To Arms
B: C. & S. Thompson, "The Compleat Tutor for the Fife" c.1760 p.15 #2
S: http://imslp.org/wiki/The_Compleat_Tutor_for_the_Fife_(Anonymous)
Z: 2014 John Chambers <jc:trillian.mit.edu>
M: 3/4
L: 1/8
K: G
% - - - - - - - - - - - - - - - - - - - - - - - - -
(3(GAB) |\
A4 (3(GAB) | G4 eg |\
f>ed>^c d2 | d4 :: d2 |\
g2 d2 c2 | B3 A G2 |
e2 e4 | d2 e>dc>B |\
A2 A4 | (3(GAB) A4 |\
(3(GAB) G4 | f2 {f2}g4 |\
dcBA G2 | G4 :|
% - - - - - - - - - - - - - - - - - - - - - - - - -
